X:1753
T:The Londonderry Hornpipe
M:C|
L:1/8
N:"collected by Delaney"
B:O'Neill's 1753
R:Hornpipe
Z:"Transcribed by Bob Safranek, rjs@gsp.org"
K:D
AG|F2 Ad fdAF|G2 Bd gdBG|F2 Ad fdAF|E2 GB ecAG|
F2 Ad fdAF|G2 Bd g2 ag|fafd Bgec|d2  f2  d2   :|
|: fg|a2 fd Adfa|g2 ec Aceg|a2 fd Adgf|3efd 3cdB A2 fg|
a2 fd Adfa|gece g2 ag|fafd Bgec|d2  f2  d2   :|
|: AG|3FED AD BDAD|dcdf ecAG|3FED AD BDAD|EGFA GBAG|
3FED AD BDAC|dcdf eceg|3fgf df agece|df 3edc d2 :|
|:3efg|agab afdf|gfga gece|agab afdf|3efd 3cdB A2 3efg|
agab afdf|gfef gbag|3fgf df agece|df 3edc d2 :|
|: fg|3.a.a.a fd Adfd|3.g.g.g ec Acec|fdge afbg|ecdB A2 fg|
3.a.a.a fd Adfd|3.g.g.g ec A2 ag|fdAF Egec|d2 f2 d2 :|
|: FG|AFAd fedc|B.GBe gfed|cAce agfe|fcdB A2 FG|
AFAd fedc|BGBd g2 ag|fafd Bgec|d2 f2 d2 :|
